X: 4295
T: The PADDOCK
%R: reel
B: James Kerr "Merry Melodies" v.4 p.31 #295
Z: 2016 John Chambers <jc:trillian.mit.edu>
M: C|
L: 1/8
K: G
D2 |\
G2(Bc) dBGB | dBge dBGB |\
[1,3 cBcd edcB | AGFE D2 :|\
[2,4 cedc BAGF | A2G2G2 |:\
(FE) |\
D2(FG) AFDF |
ABcB dcBA |\
G2(Bc) dBGB | dgfg agfe |\
dgfg egfg | dgfg egfg |\
dgdB dcAF | A2G2G2 :|

%%sep 1 1 500
%%sep 1 1 500

